X:48
M:C|
L:1/8
K:G
|:~g2 dB gBdB|~g2 de =fcAF|~g2 dB gBde|=fage =fcAF:|
|:BGGA BGBg|BGGB A=fAF|BGGA Bgde|=fadf AfcA:|
|:~g2 dB gBdB|~g de =fcAF|~g dB gBde|=fadf AfcA:|

